X: 30448
T: Old Walls Of Liscarroll, The
R: jig
M: 6/8
K: Dmixolydian
|:ABA D2A|AGE Adc|AGE cEE|GEE cEE|
ABA D2A|AGE Adc|AGE cEE|DED D3:|
|:d2c ABc|d2e dcA|GEE cEE|GEE cEE|
d2c ABc|d2e dcA|GEE cEE|DED D3:|

